X:8
T:The Moonshiner
C:
M:3/4
L:1/8
K:G
%
D2 | "G" G2 G2 G2 | B2 G3 F | "Am" E2 E2 E2 | A4 G2 |
"D" F2 F2 F2 | A2 F3 E | D2 E2 C2 | "G" B,4 D2 |
"G" G2 G3 G | B2 G2 F2 | "Am" E2 E3 E | A4 AB |
"D7" c2 A2 B2 | c2 A2 FE | D2 E2 F2 | "G" G4 |]
%
W: I'm a rambler, I'm a gambler, I'm a long way from home
W: And if you don't like me, Well, leave me alone
W: I'll eat when I'm hungry, I'll drink when I'm dry
W: And if moonshine don't kill me, I'll live til I die.
W: 
W: I've been a moonshiner for many a year
W: I've spent all my money on whiskey and beer
W: I'll go to some hol-low and set up my still
W: And I'll make you a gallon for a two dollar bill.
W:
W: W: I'm a rambler, I'm a gambler...
W:
W: I'll go to some grocery, I'll drink with my friends
W: No body to follow me to see what I spend
W: God bless those pretty women, I wish they was mine
W: Their breath is as sweet as the dew on the vine.
W: 
W: I'm a rambler, I'm a gambler...
W:
W: Well its cornbread when I'm hungry, corn liquor when I'm dry
W: And its greenbacks when I'm hard up and religion when I die
W: The world's but a bottle and life's but a dram
W: When the bottle is empty, it ain't worth a damn.
W: 
W: I'm a rambler, I'm a gambler...
W: 
W: I'll go to some hollow in this country,
W: Ten gallons of wash, I can go on a spree,
W: No woman to follow, the world is all mine,
W: And I love none so dear as I love the moonshine.
W: 
W: I'm a rambler, I'm a gambler...
W: 
W: Ah moonshine, dear moonshine, how I love thee,
W: W: You killed my old father, dare you try me?
W: Bless all moonshiners, bless all moonsnine,
W: Their breath smells as sweet as the dew on the vine.
W: 
W: I'm a rambler, I'm a gambler...

